icons/speakerphone-off.svg

<svg width="24" height="24" viewBox="0 0 24 24" fill="none" xmlns="http://www.w3.org/2000/svg">
<path d="M8 8H3V14H12L18 19V18" stroke="#1E293B" stroke-width="2" stroke-linecap="round" stroke-linejoin="round"/>
<path d="M7 14V20H10V10" stroke="#1E293B" stroke-width="2" stroke-linecap="round" stroke-linejoin="round"/>
<path d="M1 1L8 8L10 10L18 18L23 23" stroke="#1E293B" stroke-width="2" stroke-linecap="round" stroke-linejoin="round"/>
<path d="M18 14C19.6569 14 21 12.6569 21 11C21 9.34315 19.6569 8 18 8" stroke="#1E293B" stroke-width="2" stroke-linecap="round" stroke-linejoin="round"/>
<path d="M18 14V4L12.6 7.6" stroke="#1E293B" stroke-width="2" stroke-linecap="round" stroke-linejoin="round"/>
</svg>

<svg
  width="24"
  height="24"
  viewBox="0 0 24 24"
  xmlns="http://www.w3.org/2000/svg"
  fill="none"
  stroke="currentColor"
  stroke-width="2"
  stroke-linecap="round"
  stroke-linejoin="round"
>
  <path d="M8 8H3v6h9l6 5v-1" />
  <path d="M7 14v6h3V10" />
  <path d="M1 1l7 7 2 2 8 8 5 5" />
  <path d="M18 14a3 3 0 1 0 0-6" />
  <path d="M18 14V4l-5.4 3.6" />
</svg>
